!!!COM: Jacquet, Robert (et al)
!!!CDT: 1896-1976
!!!OTL: National Anthem, Niger
!!!ENC: Davis, Matthew J.
!!Vocal Line Only
**kern
*clefG2
*k[b-]
*F:
*M4/4
=1-
1r
=2
1r
=3
1r
=4
1r
=5
4f
8.f
16f
4f
4a
=6
4.a
8g
4f
4r
=7
4a
8a
8a
8b-
8a
8g
8f
=8
2a
4g
4r
=9
4g
8.g
16g
4g
4b-
=10
4.b-
8a
4g
4r
=11
4b-
8b-
8b-
8cc
8b-
8a
8g
=12
2b-
4a
4r
=13
4cc
4cc
4cc
4cc
=14
4a
8b-
8cc
4cc
8b-
8r
=15
4b-
4b-
4b-
4b-
=16
4g
8a
8b-
4a
4r
=17
4a
4a
4a
4a
=18
4f
8g
8a
4g
4r
=19
4g
8e
8f
8g
8a
8bn
8cc
=20
2dd
8cc
8r
8.r
16cc
=21
4.cc
8g
8.c
16g
8.e
16g
=22
4cc
4r
4r
8.r
16cc
=23
4.cc
8a
8.cc
16a
8.f
16a
=24
4cc
4r
4r
8r
8cc
=25
4..dd
8b-
16g
8.a
16b-
=26
4dd
2cc
8.bn
16a
=27
4g
8.cc
16cc
4dd
4g
=28
[2cc
8cc]
8r
6r
6r
6c
==29
*M6/8
!Chorus
4f
8e
4d
8c
=30
[4.f
4f]
8f
=31
4g
8g
4f
8g
=32
4.a
4f
8c
=33
4f
8e
4f
8g
=34
4.a
4a
8b-
=35
4.cc
4b-
8a
=36
[4.g
8g]
8r
8d
=37
4g
8f#
4e
8d
=38
[4.g
4g]
8g
=39
4a
8a
4g
8a
=40
4.b-
8b-
8r
8g
=41
4g
8a
4g
8f
=42
4.e
4cc
8cc
=43
4.dd
4cc
8b-
=44
[4.a
8a]
8r
8c
=45
4f
8e
4d
8c
=46
[4.f
4f]
8f
=47
4g
8g
4f
8g
=48
4.a
4f
8c
=49
4f
8e
4f
8g
=50
4.a
4a
8b-
=51
4.cc
4b-
8a
=52
4.dd
4r
8dd
=53
4dd
8g
4g
8a
=54
[4.b-
8b-]
8r
8dd
=55
4cc
8f
4f
8g
=56
4.a
8a
8r
8c
=57
4f
8g
4a
8b-
=58
4.cc
4cc
8cc
=59
2.dd
=60
[4.cc
4cc]
8cc
=61
[2.ff
=62
8ff]
8r
8r
4r
8r
==|!
*-
